X:1
T:Talpiau Pwdin (Lumps of Pudding)
S:Pigyn Clust
M:6/8
R: Jig
K:Emin
L:1/8
F | GFE e^de | B2G E2F | GFE e^de | B2G E2f | gfe fed | ecA d2B | AFD E2G | B2G E2 :|
G | BGB BGB | BGB E2F/G/ | AFA AFA | AFA D2G/A/| BGB BGB| BGB d2B |AFD E2G | B2G E2 :|
G | EGe EGe | EGe E2G | FAd FAd | FAd D2E/F/ | GBe GBe | GBe d2B | AFD E2G | B2G E2 :|
B | ~e2f ~e2f | e2d B2^c | ~d2e ~d2e | d2B A2B | ~e2f ~e2f | eBg f2e | dBG E2G |1 B2G E2 :|2 B2G E3 ||
